X:1
T:Title
%%score ( 1 2 ) { 3 | 4 }
L:1/8
Q:1/4=95
M:6/8
K:Eb
V:1 treble nm="Grand Piano, Soprano"
V:2 treble 
V:3 treble nm="Choir Pad, Let Your Light So Shine"
V:4 bass 
V:1
 [EG]/[FA]/ [GB]2 [_G=A][_Ac][Ac] | [_G=A] [=GB]2- [GB] [EG]2 | [GB]/[Ge]/ [Ae]2 [Ad] [Ae]2 | %3
w: By~Fred~S.~Shephard * * * * *|||
 [Ac] [GB]2- [GB]2- [GB]/ z/ | [GB] [FB]2 [FA] [Fd]2 | [Ac] [Ac]2 [GB] [Ge]2 | %6
w: |||
 [Ge]/[Ge]/[Fd][Fd] [Fd] [Fd]2 | [Ec] [DB]2- [DB]2- [DB]/ z/ | [DB]/[FA]/ [EG]2- [EG]3 | %9
w: |||
 z B2- B2- B/ z/ | [GB]/[GB]/ [Ac]2- [Ac]3 | z B2- B2- B/ z/ | [GB] [Ge]2 [Ge][Ge][Ge] | %13
w: ||||
 z e2- e2- e/ z/ | z3 z .B2 | [DF] E2- E3- | E3 z3 |] %17
w: ||||
V:2
 x6 | x6 | x6 | x6 | x6 | x6 | x6 | x6 | x6 | [Ec]E>E E/F/ G2 | x6 | [Ae]G>G _G/A/ =G2 | x6 | %13
 [Fd] E2 E E2 | [Ec][EB][E=A] [Dc]D-[D_A] | x6 | x6 |] %17
V:3
 B,/B,/ E2 EEE | C[K:bass] B,2- B, B,2 | E/E/[K:treble] C2 =B, C2 | E E2- E2- E/ z/ | E D2 D B,2 | %5
 D E2 E[K:bass] B,2 | B,/B,/B,B, B, =A,2 | =A, B,2- B,2- B,/ z/ | z3 B, B,2 | A,G,>G, G,/A,/ B,2 | %10
 z3[K:treble] E E2 | CB,>B,[K:bass] =A,/C/ B,2 | B, B,2 B,B,B, | B, B,2 _D C2 | A,G,_G, A, F,2 | %15
 A, G,2- G,3- | G,3 z3 |] %17
V:4
 E,/E,/ E,2 E,E,E, | E, E,2- E, E,2 | E,/E,/ A,2 A, A,2 | A, E,2- E,2- E,/ z/ | E, B,2 .B,3 | %5
 B, E,2 E, E,2 | E,/E,/F,F, F, F,2 | F, B,,2- B,,2- B,,/ z/ | z3 E, E,2 | E, E,2- E,2- E,/ z/ | %10
 z3 A, A,2 | A,, E,2- E,2- E,/ z/ | E, E,2 E,E,E, | E, G,2 G, A,2 | A,,B,,B,, B,, B,,2 | %15
 B,, E,2- E,3- | E,3 z3 |] %17

